Sources/FrostedUI/Resources/Icons.xcassets/calendar32.imageset/calendar-32.svg

<svg width="32" height="32" viewBox="0 0 32 32" fill="none" xmlns="http://www.w3.org/2000/svg" data-fui-icon="true">
  <path
    d="M21.25 1.5C21.6642 1.5 22 1.83579 22 2.25V5H25.1797C27.5656 5 29.5 6.93444 29.5 9.32031V25.1797C29.5 27.5656 27.5656 29.5 25.1797 29.5H6.82031C4.43444 29.5 2.5 27.5656 2.5 25.1797V9.32031C2.5 6.93444 4.43444 5 6.82031 5H10V2.25C10 1.83579 10.3358 1.5 10.75 1.5C11.1642 1.5 11.5 1.83579 11.5 2.25V5H20.5V2.25C20.5 1.83579 20.8358 1.5 21.25 1.5ZM4 25.1797C4 26.7371 5.26287 28 6.82031 28H25.1797C26.7371 28 28 26.7371 28 25.1797V13H4V25.1797ZM6.82031 6.5C5.26287 6.5 4 7.76287 4 9.32031V11.5H28V9.32031C28 7.76287 26.7371 6.5 25.1797 6.5H6.82031Z"
    fill="currentColor"
  />
</svg>

<svg xmlns="http://www.w3.org/2000/svg" width="32" height="32" fill="none" data-fui-icon="true" viewBox="0 0 32 32"><path fill="currentColor" d="M21.25 1.5a.75.75 0 0 1 .75.75V5h3.18a4.32 4.32 0 0 1 4.32 4.32v15.86a4.32 4.32 0 0 1-4.32 4.32H6.82a4.32 4.32 0 0 1-4.32-4.32V9.32A4.32 4.32 0 0 1 6.82 5H10V2.25a.75.75 0 0 1 1.5 0V5h9V2.25a.75.75 0 0 1 .75-.75M4 25.18A2.82 2.82 0 0 0 6.82 28h18.36A2.82 2.82 0 0 0 28 25.18V13H4zM6.82 6.5A2.82 2.82 0 0 0 4 9.32v2.18h24V9.32a2.82 2.82 0 0 0-2.82-2.82z"/></svg>
